svgs/sharp-solid/stopwatch.svg

<svg xmlns="http://www.w3.org/2000/svg" viewBox="0 0 448 512"><!--! Font Awesome Pro 6.6.0 by @fontawesome - https://fontawesome.com License - https://fontawesome.com/license (Commercial License) Copyright 2024 Fonticons, Inc. --><path d="M224 0L144 0l0 64 48 0 0 34.4C92.3 113.8 16 200 16 304c0 114.9 93.1 208 208 208s208-93.1 208-208c0-41.8-12.3-80.7-33.5-113.2l24.1-24.1L445.3 144 400 98.7l-22.6 22.6L355.7 143c-28.1-23-62.2-38.8-99.7-44.6L256 64l48 0 0-64L224 0zm24 216l0 112 0 24-48 0 0-24 0-112 0-24 48 0 0 24z"/></svg>

<svg xmlns="http://www.w3.org/2000/svg" viewBox="0 0 448 512"><!--! Font Awesome Pro 6.4.2 by @fontawesome - https://fontawesome.com License - https://fontawesome.com/license (Commercial License) Copyright 2023 Fonticons, Inc. --><path d="M224 0H144V64h48V98.4C92.3 113.8 16 200 16 304c0 114.9 93.1 208 208 208s208-93.1 208-208c0-41.8-12.3-80.7-33.5-113.2l24.1-24.1L445.3 144 400 98.7l-22.6 22.6L355.7 143c-28.1-23-62.2-38.8-99.7-44.6V64h48V0H224zm24 216V328v24H200V328 216 192h48v24z"/></svg>
